images/link-out-icon.svg

<svg id="link_out" xmlns="http://www.w3.org/2000/svg" viewBox="0 0 20 20"><defs><style>.cls-1{fill:#444}</style></defs><title>Artboard 1</title><path class="cls-1" d="M14.53 0H3.22v4.31h1.5V1.53H13V7h5.44v11.5H4.72v-3.28l-1.5-1V20H20V5.47zm0 5.5V2.15l3.35 3.35z"/><path class="cls-1" d="M14.17 10.36C9.28 13.63 6.75 9 5.83 8.06l1.45-1.43a.47.47 0 0 0-.28-.8H.64a.47.47 0 0 0-.47.47v6.21a.47.47 0 0 0 .8.33l1.41-1.38c3.62 3.62 7.84 4.68 12.15-.75a.25.25 0 0 0-.36-.35z"/></svg>

<svg id="link_out" xmlns="http://www.w3.org/2000/svg" viewBox="0 0 20 20"><defs><style>.cls-1{fill:#444;}</style></defs><title>Artboard 1</title><path class="cls-1" d="M14.53,0H3.22V4.31h1.5V1.53H13V7h5.44V18.5H4.72V15.22l-1.5-1V20H20V5.47Zm0,5.5V2.15L17.88,5.5Z"/><path class="cls-1" d="M14.17,10.36l0,0C9.28,13.63,6.75,9,5.83,8.06L7.28,6.63h0A.47.47,0,0,0,7,5.83l-6.36,0a.47.47,0,0,0-.47.47l0,6.21a.47.47,0,0,0,.8.33l1.41-1.38c3.62,3.62,7.84,4.68,12.15-.75A.25.25,0,0,0,14.17,10.36Z"/></svg>
